X:24
T:Bonny Christon
Z:Jack Campin - http://www.campin.me.uk
S:Blaikie MS (NLS MS.1578) p9, Blaikie #23
M:2/4 % signature says 3/4
L:1/8
V:1 midi program 1 74
V:2 midi program 1 46 bass middle = d transpose -24
Q:1/4=80
K:F
[V:1] f2 d2|c>dcA|G>AGF | AF F2 |
[V:2] F2 f2|F2 f2|c2 c'2| f2 F2 |
%
[V:1] A2 c2|A2 GF|CD`FG | AF F2||
[V:2] F2 f2|f2 ga|ab`ag | f2 F2||
%
[V:1] G2 FG|A2_e2|d2 cd | gG G2 |
[V:2] c2 c2|f2 a2|b2 ab |=b2 c'2|
%
[V:1] A2 c2|A2 GF|CD`FG | AF F2|]
[V:2] fc'af|Ff`ga|ab`ag | f2 F2|]
W:Transcription (c) Jack Campin 2009, no mirroring or republication without permission

